icons/plexis/48/linuxdcpp.svg

<svg viewBox="0 0 48 48" xmlns="http://www.w3.org/2000/svg" xmlns:xlink="http://www.w3.org/1999/xlink">
  <linearGradient id="a" gradientTransform="matrix(0 -1 1 0 -.0000015 47.999998)" gradientUnits="userSpaceOnUse" x1="1" x2="47">
    <stop offset="0" stop-color="#e4e4e4"/>
    <stop offset="1" stop-color="#eee"/>
  </linearGradient>
  <path d="m47 24c0 22.703-.297 23-23 23-22.703 0-23-.297-23-23 0-22.703.297-23 23-23 22.703 0 23 .297 23 23z" fill="url(#a)"/>
  <path d="m21 12a8 8 0 0 0-8 8 8 8 0 0 0  2.959 6.205 8 8 0 0 0-.959 3.795 8 8 0 0 0  8 8 8 8 0 0 0  7.762-6.105 8 8 0 0 0  1.238.105 8 8 0 0 0  8-8 8 8 0 0 0-8-8 8 8 0 0 0-3.643.879 8 8 0 0 0-7.357-4.879" opacity=".1"/>
  <circle cx="20" cy="19" fill="#2d2d2d" r="8"/>
  <circle cx="20" cy="19" fill="#f8ae18" r="6"/>
  <circle cx="31" cy="23" fill="#2d2d2d" r="8"/>
  <circle cx="22" cy="29" fill="#2d2d2d" r="8"/>
  <circle cx="22" cy="29" fill="#f8ae18" r="6"/>
</svg>

<svg xmlns="http://www.w3.org/2000/svg" viewBox="0 0 48 48">
 <defs>
  <linearGradient id="linearGradient3764" x1="1" x2="47" gradientUnits="userSpaceOnUse" gradientTransform="matrix(0,-1,1,0,-1.5e-6,47.999998)">
   <stop style="stop-color:#e4e4e4;stop-opacity:1"/>
   <stop offset="1" style="stop-color:#eee;stop-opacity:1"/>
  </linearGradient>
 </defs>
 <g>
  
  
  
 </g>
 <g>
  <path d="m 47,24 C 47,46.703 46.703,47 24,47 1.297,47 1,46.703 1,24 1,1.297 1.297,1 24,1 46.703,1 47,1.297 47,24 z" style="fill:url(#linearGradient3764);fill-opacity:1"/>
 </g>
 <g>
  <g>
   <!-- color: #eeeeee -->
  </g>
 </g>
 <path d="m 21 12 a 8 8 0 0 0 -8 8 8 8 0 0 0 2.959 6.205 A 8 8 0 0 0 15 30 8 8 0 0 0 23 38 8 8 0 0 0 30.762 31.895 8 8 0 0 0 32 32 8 8 0 0 0 40 24 8 8 0 0 0 32 16 8 8 0 0 0 28.357 16.879 8 8 0 0 0 21 12" style="fill:#000;opacity:0.1;fill-opacity:1;stroke:none"/>
 <circle cx="20" cy="19" r="8" style="fill:#2d2d2d;opacity:1;fill-opacity:1;stroke:none"/>
 <g>
  
 </g>
 <circle cx="20" cy="19" r="6" style="fill:#f8ae18;opacity:1;fill-opacity:1;stroke:none"/>
 <circle cx="31" cy="23" r="8" style="fill:#2d2d2d;opacity:1;fill-opacity:1;stroke:none"/>
 <circle cx="22" cy="29" r="8" style="fill:#2d2d2d;opacity:1;fill-opacity:1;stroke:none"/>
 <circle cx="22" cy="29" r="6" style="fill:#f8ae18;opacity:1;fill-opacity:1;stroke:none"/>
</svg>
